X:91
T:Death & the lady - Hannaford
C:Taken down from Roger Hannaford by H.Fl.S. May 1890
%%VWML:SBG-1-1-459-0
F:http://www.vwml.org/record/SBG/1/1/459
Z:Original Sibleius Transcription by Martin and Shan Graebe
L:1/8
M:4/4
I:linebreak $
K:F
cA | F2 A2 D2 E2 | GF A2 c3 c | d2 e2 fe dc | A3 d d2 c2 |$ de f2 ed B2 | d2 AG F2 A2 | 
D2 E2 F2 GF | F2 EG F4 |] 



